X:1
T: The 12 days of Xmas
S: From George Wyatt at West Harptree (Blue Bowl) on April 15th 1904
N: Title has "Christmas Song" sctached out and replaced with "The 12 days of Xmas" in pencil
Z: Transcribed by Jack Shuttleworth, 2013
M:6/4     
L:1/8   
K:F
cc | c2 G2 A2 B2 A2 G2 | c2 e2 d_B c4 z2 | 
w: On the 12th day of X. mas my true love sent to me
c2 G2 A2 B2 G2 z2 | c2 G2 A2 B2 "_etc 10, 9, 8, 7, 6" G2 z2 | 
w:12 bells a \-ringing | 11 bulls a \-beat ing
M:3/4 
(ec) d_B c2 | (ec) d_B c2 | (ec) d_B c2 | (ec) d_B (c2 |
w:  5 gold ** rings | 4 colley ** birds | Three french **hens | 2 turtle ** doves
"_. . ."c4) FF ||\
w:*and the
w:  
M: C
GA _Bc d2 BG | AA E2 F2 ||
w: merry *little *part \-ridge all in the bar \-ley





